icons/money-dollar-box-line.svg

<svg xmlns="http://www.w3.org/2000/svg" width="24" height="24" fill="none"><g clip-path="url(#a)"><g><path fill="#121212" d="M3 3H21C21.2652 3 21.5196 3.10536 21.7071 3.29289C21.8946 3.48043 22 3.73478 22 4V20C22 20.2652 21.8946 20.5196 21.7071 20.7071C21.5196 20.8946 21.2652 21 21 21H3C2.73478 21 2.48043 20.8946 2.29289 20.7071C2.10536 20.5196 2 20.2652 2 20V4C2 3.73478 2.10536 3.48043 2.29289 3.29289C2.48043 3.10536 2.73478 3 3 3ZM4 5V19H20V5H4ZM8.5 14H14C14.1326 14 14.2598 13.9473 14.3536 13.8536C14.4473 13.7598 14.5 13.6326 14.5 13.5C14.5 13.3674 14.4473 13.2402 14.3536 13.1464C14.2598 13.0527 14.1326 13 14 13H10C9.33696 13 8.70107 12.7366 8.23223 12.2678C7.76339 11.7989 7.5 11.163 7.5 10.5C7.5 9.83696 7.76339 9.20107 8.23223 8.73223C8.70107 8.26339 9.33696 8 10 8H11V6H13V8H15.5V10H10C9.86739 10 9.74021 10.0527 9.64645 10.1464C9.55268 10.2402 9.5 10.3674 9.5 10.5C9.5 10.6326 9.55268 10.7598 9.64645 10.8536C9.74021 10.9473 9.86739 11 10 11H14C14.663 11 15.2989 11.2634 15.7678 11.7322C16.2366 12.2011 16.5 12.837 16.5 13.5C16.5 14.163 16.2366 14.7989 15.7678 15.2678C15.2989 15.7366 14.663 16 14 16H13V18H11V16H8.5V14Z"/></g></g><defs><clipPath id="a"><rect width="24" height="24" fill="white"/></clipPath></defs></svg>

<svg width="24" height="24" fill="none" xmlns="http://www.w3.org/2000/svg"><g clip-path="url(#a)"><path d="M3 3h18a1 1 0 0 1 1 1v16a1 1 0 0 1-1 1H3a1 1 0 0 1-1-1V4a1 1 0 0 1 1-1Zm1 2v14h16V5H4Zm4.5 9H14a.5.5 0 0 0 0-1h-4a2.5 2.5 0 0 1 0-5h1V6h2v2h2.5v2H10a.5.5 0 0 0 0 1h4a2.5 2.5 0 0 1 0 5h-1v2h-2v-2H8.5v-2Z" /></g><defs><clipPath id="a"><path fill="#fff" d="M0 0h24v24H0z"/></clipPath></defs></svg>
